X: 108006
Q: "Reel."
M: C
L: 1/8
K: Am
uE |\
uB |\
c2ce d2de | c2ce (dB)GB |
c2ce d2df | edcB A2(AB) |\
ccce ddde | ccce dBGB |\
ccce dddf | edcB A2-A |]\
"_Fine."A4 ||



